X: 11997
T: Eoin's
R: polka
M: 2/4
K: Fdorian
|BE GB|ed c2|ce BG|AB/A/ GF|
BE GB|ed c2|ce BG|FG/F/ E2:|
e>f ge|dg c2|ce Be|cB AG|
e>f ge|dg c2|ce Be|ce eB|
e>f ge|dg c2|ce Be|ce eg/a/|
bg af|gG A2|ce BG|FG/F/ E2|

